X:195
U: ~ = !turn!
%%topmargin 3cm
T:Sliabh Na Mban
T:Air
B:Traditional Irish Fiddle Tunes. Randy Miller and Jack Perron.
Z:Transcribed by Ralph Palmer
S:Mary O'Hara
R:Air
L:1/8
M:6/8
K:G
D2F | G3 c2 A | B3 ABA | GBd g3 | a2 g fdB | c3 B2 c | d3 edc | [1 B G2 B d2 | d2 d c2 B | A3 :|
[2 B G2 c3 | A2 F G2 F | G3 || def | g3 Bcd | f2 e d2 A | B2 A GBd | g3 Bcd | f2 e (d3 | d3) D2 F |
G3 c2 A | B3 ABA | GBd g3 | a2 g fdB | c3 B2 c | d3 edc | B G2 c3 | A F2 G2 F | (G3 G3 | G3) |]
